X:253
T:Pick a Bale of Cotton
Z:Jack Campin, http://www.campin.me.uk/
F:Jack Campin's Nine-Note Tunebook
% last edit 03-02-2013
M:C|
L:1/8
Q:1/2=96
K:G
B2G2 GGG2|GGGG ED3|B2G2 GGG2|DDFF G4:|
B4   c2d2|GGGG ED3|B4   c2d2|DDFF G4:|

